resources/devices/boombox_1.svg

<?xml version="1.0" encoding="UTF-8" standalone="no"?>
<!-- Uploaded to: SVG Repo, www.svgrepo.com, Generator: SVG Repo Mixer Tools -->

<svg
   fill="#000000"
   version="1.1"
   id="Layer_1"
   viewBox="0 0 45 39.999999"
   xml:space="preserve"
   sodipodi:docname="boombox_1.svg"
   width="45"
   height="40"
   inkscape:version="1.3.2 (091e20e, 2023-11-25)"
   xmlns:inkscape="http://www.inkscape.org/namespaces/inkscape"
   xmlns:sodipodi="http://sodipodi.sourceforge.net/DTD/sodipodi-0.dtd"
   xmlns="http://www.w3.org/2000/svg"
   xmlns:svg="http://www.w3.org/2000/svg"><defs
   id="defs8">
	

		
	
	

		
	
	

		
	
	

		
	</defs><sodipodi:namedview
   id="namedview8"
   pagecolor="#ffffff"
   bordercolor="#000000"
   borderopacity="0.25"
   inkscape:showpageshadow="2"
   inkscape:pageopacity="0.0"
   inkscape:pagecheckerboard="0"
   inkscape:deskcolor="#d1d1d1"
   inkscape:current-layer="Layer_1" />
<path
   id="path1"
   d="M 2.6301955,2.9330825 V 10.732861 H 0 V 37.066918 H 45 V 10.732861 H 42.369804 V 2.9330825 Z m 2.934723,2.9348946 H 39.435081 V 10.732861 H 28.912925 V 9.1159819 H 25.978032 V 10.732861 H 23.967361 V 9.1159819 H 21.032639 V 10.732861 H 19.021797 V 9.1159819 H 16.086903 V 10.732861 H 5.5649185 Z M 2.9347229,13.667756 H 42.065106 V 34.132194 H 2.9347229 Z m 14.6191981,1.452598 v 2.934894 h 9.8913 v -2.934894 z m -5.959397,2.327214 c -4.095523,0 -7.4274441,3.331748 -7.4274441,7.427272 0,4.095523 3.3319211,7.427444 7.4274441,7.427444 4.095524,0 7.427273,-3.331921 7.427273,-7.427444 0,-4.095435 -3.331749,-7.427272 -7.427273,-7.427272 z m 21.810952,0 c -4.095348,0 -7.427273,3.331748 -7.427273,7.427272 0,4.095523 3.331749,7.427444 7.427273,7.427444 4.095347,0 7.427444,-3.331921 7.427444,-7.427444 0,-4.095435 -3.332097,-7.427272 -7.427444,-7.427272 z m -21.810952,2.934894 c 2.477107,0 4.492379,2.015443 4.492379,4.49255 0,2.477106 -2.015184,4.492549 -4.492379,4.492549 -2.4771944,0 -4.4925495,-2.015443 -4.4925495,-4.492549 0,-2.477107 2.015443,-4.49255 4.4925495,-4.49255 z m 21.810952,0 c 2.477107,0 4.49255,2.015443 4.49255,4.49255 0,2.477106 -2.015356,4.492549 -4.49255,4.492549 -2.477195,0 -4.492379,-2.015443 -4.492379,-4.492549 0,-2.477107 2.015184,-4.49255 4.492379,-4.49255 z"
   style="stroke-width:0.0878906" />



</svg>

<svg xmlns="http://www.w3.org/2000/svg" xml:space="preserve" width="45" height="40">
    <path d="M2.63 2.933v7.8H0v26.334h45V10.733h-2.63v-7.8Zm2.935 2.935h33.87v4.865H28.913V9.116h-2.935v1.617h-2.01V9.116h-2.935v1.617h-2.011V9.116h-2.935v1.617H5.565Zm-2.63 7.8h39.13v20.464H2.935Zm14.619 1.452v2.935h9.891V15.12zm-5.96 2.328c-4.095 0-7.427 3.331-7.427 7.427 0 4.095 3.332 7.427 7.428 7.427 4.095 0 7.427-3.332 7.427-7.427 0-4.096-3.332-7.427-7.427-7.427m21.811 0c-4.095 0-7.427 3.331-7.427 7.427 0 4.095 3.332 7.427 7.427 7.427 4.096 0 7.428-3.332 7.428-7.427 0-4.096-3.332-7.427-7.428-7.427m-21.81 2.934a4.5 4.5 0 0 1 4.492 4.493 4.5 4.5 0 0 1-4.492 4.493 4.5 4.5 0 0 1-4.493-4.493 4.5 4.5 0 0 1 4.493-4.493m21.81 0a4.5 4.5 0 0 1 4.493 4.493 4.5 4.5 0 0 1-4.493 4.493 4.5 4.5 0 0 1-4.492-4.493 4.5 4.5 0 0 1 4.492-4.493" style="stroke-width:.0878906"/>
</svg>
